Obsidian/status/16s/skype-status-connecting-1.svg

<svg height="16" width="16" xmlns="http://www.w3.org/2000/svg"><path d="m4.5 1a3.5 3.5 0 0 0 -3.5 3.5 3.5 3.5 0 0 0 1.0859375 2.5292969 6 6 0 0 0 -.0859375.9707031 6 6 0 0 0 6 6 6 6 0 0 0 .9707031-.082031 3.5 3.5 0 0 0 2.5292969 1.082031 3.5 3.5 0 0 0 3.5-3.5 3.5 3.5 0 0 0 -1.085938-2.5292969 6 6 0 0 0 .085938-.9707031 6 6 0 0 0 -6-6 6 6 0 0 0 -.9707031.0820312 3.5 3.5 0 0 0 -2.5292969-1.0820312zm3.5 1.9863281v1.0507813c.525978.0426141 1.1296326.1401672 1.765625.4101562 1.129354.4794271 2.234375 1.7057409 2.234375 3.5390625a1.0001 1.0001 0 1 1 -2 0c0-1.1666765-.395029-1.4338135-1.015625-1.6972656-.2956002-.1254867-.6446359-.1958285-.984375-.2363281v.9335937l-3-2zm-2.984375 4a1.0001 1.0001 0 0 1 .984375 1.0136719c0 1.1666667.3980887 1.4387454 1.0195312 1.7050781.2947608.126326.6424711.1966097.9804688.2382813v-.9433594l3 2-3 2v-1.037109c-.5227877-.045183-1.142182-.149105-1.7695312-.417969-1.1285574-.483668-2.2304688-1.7115889-2.2304688-3.544922a1.0001 1.0001 0 0 1 1.015625-1.0136719z" fill="#d3dae3"/></svg>

<svg xmlns="http://www.w3.org/2000/svg" width="16" height="16" version="1">
 <defs>
  <style id="current-color-scheme" type="text/css">
   .ColorScheme-Text { color:#d3dae3; } .ColorScheme-Highlight { color:#5294e2; }
  </style>
 </defs>
 <path style="fill:currentColor" class="ColorScheme-Text" d="M 4.5 1 A 3.5 3.5 0 0 0 1 4.5 A 3.5 3.5 0 0 0 2.0859375 7.0292969 A 6 6 0 0 0 2 8 A 6 6 0 0 0 8 14 A 6 6 0 0 0 8.9707031 13.917969 A 3.5 3.5 0 0 0 11.5 15 A 3.5 3.5 0 0 0 15 11.5 A 3.5 3.5 0 0 0 13.914062 8.9707031 A 6 6 0 0 0 14 8 A 6 6 0 0 0 8 2 A 6 6 0 0 0 7.0292969 2.0820312 A 3.5 3.5 0 0 0 4.5 1 z M 8 2.9863281 L 8 4.0371094 C 8.525978 4.0797235 9.1296326 4.1772766 9.765625 4.4472656 C 10.894979 4.9266927 12 6.1530065 12 7.9863281 A 1.0001 1.0001 0 1 1 10 7.9863281 C 10 6.8196516 9.604971 6.5525146 8.984375 6.2890625 C 8.6887748 6.1635758 8.3397391 6.093234 8 6.0527344 L 8 6.9863281 L 5 4.9863281 L 8 2.9863281 z M 5.015625 6.9863281 A 1.0001 1.0001 0 0 1 6 8 C 6 9.1666667 6.3980887 9.4387454 7.0195312 9.7050781 C 7.314292 9.8314041 7.6620023 9.9016878 8 9.9433594 L 8 9 L 11 11 L 8 13 L 8 11.962891 C 7.4772123 11.917708 6.857818 11.813786 6.2304688 11.544922 C 5.1019114 11.061254 4 9.8333331 4 8 A 1.0001 1.0001 0 0 1 5.015625 6.9863281 z"/>
 <path style="fill:currentColor" class="ColorScheme-Text" d="M -25.069,-9.0812"/>
</svg>
